packages/icons/svgs/duotone/Source=block.svg

<svg width="24" height="24" viewBox="0 0 24 24" fill="none" xmlns="http://www.w3.org/2000/svg">
<path fill-rule="evenodd" clip-rule="evenodd" d="M12 10.5C12.5523 10.5 13 10.9477 13 11.5V22.5C13 23.0523 12.5523 23.5 12 23.5C11.4477 23.5 11 23.0523 11 22.5V11.5C11 10.9477 11.4477 10.5 12 10.5Z" fill="black" style="fill:black;fill-opacity:1;"/>
<path fill-rule="evenodd" clip-rule="evenodd" d="M2.12584 6.01436C2.39405 5.53157 3.00286 5.35763 3.48564 5.62584L12 10.356L20.5144 5.62584C20.9971 5.35763 21.6059 5.53157 21.8742 6.01436C22.1424 6.49714 21.9684 7.10594 21.4856 7.37416L12.4856 12.3742C12.1836 12.5419 11.8164 12.5419 11.5144 12.3742L2.51436 7.37416C2.03157 7.10594 1.85763 6.49714 2.12584 6.01436Z" fill="black" style="fill:black;fill-opacity:1;"/>
<path fill-rule="evenodd" clip-rule="evenodd" d="M11.5144 0.625843C11.8164 0.458052 12.1836 0.458052 12.4856 0.625843L21.4856 5.62584C21.8031 5.80221 22 6.13683 22 6.5V17.5C22 17.8632 21.8031 18.1978 21.4856 18.3742L12.4856 23.3742C12.1836 23.5419 11.8164 23.5419 11.5144 23.3742L2.51436 18.3742C2.19689 18.1978 2 17.8632 2 17.5V6.5C2 6.13683 2.19689 5.80221 2.51436 5.62584L11.5144 0.625843ZM4 7.0884V16.9116L12 21.356L20 16.9116V7.0884L12 2.64396L4 7.0884Z" fill="black" style="fill:black;fill-opacity:1;"/>
</svg>

<svg xmlns="http://www.w3.org/2000/svg" width="24" height="24" viewBox="0 0 24 24"><path fill-rule="evenodd" d="M12 10.5a1 1 0 0 1 1 1v11a1 1 0 1 1-2 0v-11a1 1 0 0 1 1-1" clip-rule="evenodd"/><path fill-rule="evenodd" d="M2.126 6.014a1 1 0 0 1 1.36-.388L12 10.356l8.514-4.73a1 1 0 0 1 .972 1.748l-9 5a1 1 0 0 1-.972 0l-9-5a1 1 0 0 1-.388-1.36" clip-rule="evenodd"/><path fill-rule="evenodd" d="M11.514.626a1 1 0 0 1 .972 0l9 5A1 1 0 0 1 22 6.5v11a1 1 0 0 1-.514.874l-9 5a1 1 0 0 1-.972 0l-9-5A1 1 0 0 1 2 17.5v-11a1 1 0 0 1 .514-.874zM4 7.088v9.824l8 4.444 8-4.444V7.088l-8-4.444z" clip-rule="evenodd"/></svg>
